!!!OTL: 813a. Gassatengehen.
!!!ARE: Europa, Mitteleuropa, Deutschland, Meiningen; Coburg
!!!SCT: E0813
!!!TXL: @@DE
!!!YEM: Copyright 1995, estate of Helmut Schaffrath.
**kern	**text
*ICvox	*
*M3/4	*
*k[f#]	*
*G:	*
!LO:TX:a:t=Mäßig bewegt.	!
!LO:TX:a:t=Erk, Volksl. J, 5, Nr. 66 und gleichlautend Ldhort. 1354. Aus dem Meiningſchen u. Coburgſchen.	!
{4d	Ein
=1	=1
8g	jun-
8f#	-ger
4.g	Knab
8b/	gaſ-
=2	=2
8a	-ſa-
8g	-ten
4.a}	ging
{8b	wol
=3	=3
8cc	um
8b	der
4cc	Jung-
4ee	-frau
=4	=4
4b	wil-
4b}	-len.
{4d	Ein
=5	=5
8g	jun-
8f#	-ger
4.g	Knab
8b/	gaſ-
=6	=6
8a	-ſa-
8g	-ten
4.a}	ging
{8b	wol
=7	=7
8cc	um
8b	der
4cc	Jung-
4ee	-frau
=8	=8
4b	wil-
4b	-len.
8r}	.
{8g	Er
=9	=9
8b	gieng
8cc	vor
4.dd	ihr
8b	Schlaf-
=10	=10
8cc	-käm-
8dd	-mer-
4.ee}	-lein:
{8ee	Steh
=11	=11
8dd	auf,
8ee	mein
4.dd	Schatʒ
8b	und
=12	=12
8a	laß
8g	mich
4.a}	ein!
{8b	ich
=13	=13
8cc	hab
8b	ſchon
4cc	lang
4ee	ge-
=14	=14
4b	-ſtan-
4b	-den.
8r}	.
{8g	Er
=15	=15
8b	gieng
8cc	vor
4.dd	ihr
8b	Schlaf-
=16	=16
8cc	-käm-
8dd	-mer-
4.ee}	-lein:
{8ee	Steh
=17	=17
8dd	auf,
8ee	mein
4.dd	Schatʒ
8b	und
=18	=18
8a	laß
8g	mich
4.a}	ein!
{8b	ich
=19	=19
8cc	hab
8b	ſchon
4cc	lang
4ee	ge-
=20	=20
4b	-ſtan-
4b}	-den.
==	==
!!!AGN: Tage - Lied, Kilt - Lied
!!!ONB: ESAC (Essen Associative Code) Database: ERK2
!!!AMT: simple triple
!!!AIN: vox
!!!EED: Helmut Schaffrath
!!!EEV: 1.0
!!!GTL: Tagelieder und Kiltgesaenge
!!!URL-scan: https://rosdok.uni-rostock.de/mcrviewer/recordIdentifier/rosdok_ppn745177662/iview2/phys_0619.iview2?x=142.68638487052112&y=1975.7809494836256&scale=0.7029437510502773&rotation=0&layout=singlePageLayout
!!!ENC: Anna Maria Matuszewska
!!!EEV: 2024/12/17
*-	*-
